assets/icons/mail/unread.svg

<?xml version="1.0" encoding="UTF-8" standalone="no"?>
<svg
   viewBox="0 0 24 24"
   height="24"
   width="24"
   version="1.1"
   id="svg4"
   sodipodi:docname="unread.svg"
   inkscape:version="1.2 (1:1.2.1+202207142221+cd75a1ee6d)"
   xmlns:inkscape="http://www.inkscape.org/namespaces/inkscape"
   xmlns:sodipodi="http://sodipodi.sourceforge.net/DTD/sodipodi-0.dtd"
   xmlns="http://www.w3.org/2000/svg"
   xmlns:svg="http://www.w3.org/2000/svg">
  <defs
     id="defs8" />
  <sodipodi:namedview
     id="namedview6"
     pagecolor="#ffffff"
     bordercolor="#666666"
     borderopacity="1.0"
     inkscape:pageshadow="2"
     inkscape:pageopacity="0.0"
     inkscape:pagecheckerboard="0"
     showgrid="true"
     inkscape:snap-page="true"
     inkscape:zoom="28"
     inkscape:cx="11.928571"
     inkscape:cy="6.4285715"
     inkscape:window-width="1920"
     inkscape:window-height="1043"
     inkscape:window-x="0"
     inkscape:window-y="0"
     inkscape:window-maximized="1"
     inkscape:current-layer="svg4"
     inkscape:showpageshadow="2"
     inkscape:deskcolor="#d1d1d1">
    <inkscape:grid
       type="xygrid"
       id="grid6" />
  </sodipodi:namedview>
  <path
     id="path1048"
     style="fill:#808080;stroke-width:1"
     d="M 4.7871094 5 C 4.1101671 5.00559 3.5365043 5.0481538 3.0273438 5.3027344 C 2.6879029 5.4724546 2.3973374 5.76517 2.2304688 6.140625 C 2.0635994 6.51608 2 6.9583364 2 7.5 L 2 10 L 2 15 L 2 17.5 C 2 18.041662 2.0635994 18.483919 2.2304688 18.859375 C 2.3973374 19.234831 2.6879029 19.527545 3.0273438 19.697266 C 3.5365043 19.951847 4.1101671 19.9944 4.7871094 20 C 5.0127565 20.0019 5.2500013 20 5.5 20 L 18.5 20 C 19.499994 20 20.293776 20.036705 20.972656 19.697266 C 21.312099 19.527545 21.602661 19.234831 21.769531 18.859375 C 21.9364 18.483919 22 18.041662 22 17.5 L 22 15 L 22 10 L 22 7.9375 A 3.5 3.5 0 0 1 21 8.6582031 L 21 10 L 21 15 L 21 17.5 C 21 17.958332 20.938599 18.266083 20.855469 18.453125 C 20.772339 18.640167 20.687901 18.722454 20.527344 18.802734 C 20.20623 18.963289 19.499994 19 18.5 19 L 5.5 19 C 4.500006 19 3.7937689 18.96329 3.4726562 18.802734 C 3.3121001 18.722455 3.2276612 18.640167 3.1445312 18.453125 C 3.0614013 18.266083 3 17.958332 3 17.5 L 3 15 L 3 10 L 3 7.5 C 3 7.0416696 3.0614014 6.7339164 3.1445312 6.546875 C 3.2276612 6.3598336 3.3121001 6.2775437 3.4726562 6.1972656 C 3.7937689 6.0367095 4.500006 6 5.5 6 L 16.035156 6 A 3.5 3.5 0 0 1 16 5.5 A 3.5 3.5 0 0 1 16.035156 5 L 5.5 5 C 5.2500013 5 5.0127565 4.99814 4.7871094 5 z M 5.015625 8 L 4.6582031 8.546875 L 12 13.822266 L 18.798828 8.9199219 A 3.5 3.5 0 0 1 17.945312 8.6289062 L 12 12.216797 L 5.015625 8 z " />
  <circle
     style="fill:#808080;fill-rule:evenodd;stroke-width:2;stroke-linecap:square;stroke-linejoin:round"
     id="path1267"
     cx="19.5"
     cy="5.5"
     r="2.5" />
</svg>

<svg height="24" width="24" xmlns="http://www.w3.org/2000/svg"><path style="fill:gray;stroke-width:1" d="M4.787 5c-.677.006-1.25.048-1.76.303-.34.17-.63.462-.797.838C2.064 6.516 2 6.958 2 7.5v10c0 .542.064.984.23 1.36.167.375.458.668.797.837.51.255 1.083.297 1.76.303.226.002.463 0 .713 0h13c1 0 1.794.037 2.473-.303.34-.17.63-.462.797-.838.166-.375.23-.817.23-1.359V7.937a3.5 3.5 0 0 1-1 .721V17.5c0 .458-.061.766-.145.953a.615.615 0 0 1-.328.35c-.32.16-1.027.197-2.027.197h-13c-1 0-1.706-.037-2.027-.197a.615.615 0 0 1-.328-.35C3.06 18.266 3 17.958 3 17.5v-10c0-.458.061-.766.145-.953a.615.615 0 0 1 .328-.35C3.793 6.037 4.5 6 5.5 6h10.535A3.5 3.5 0 0 1 16 5.5a3.5 3.5 0 0 1 .035-.5H5.5c-.25 0-.487-.002-.713 0zm.229 3-.358.547L12 13.822l6.799-4.902a3.5 3.5 0 0 1-.854-.291L12 12.217 5.016 8z"/><circle style="fill:gray;stroke-width:2;stroke-linecap:square;stroke-linejoin:round" cx="19.5" cy="5.5" r="2.5"/></svg>
